img/svgicons/favorite.svg

<svg width="24" height="24" viewBox="0 0 24 24" fill="none" xmlns="http://www.w3.org/2000/svg">
<path d="M11.2232 19.1147L11.2217 19.1134C8.62662 16.7602 6.55384 14.878 5.1178 13.1223C3.69324 11.3807 3 9.88574 3 8.32422C3 5.7965 4.97228 3.82422 7.5 3.82422C8.93721 3.82422 10.3322 4.49815 11.2386 5.56256L12 6.45662L12.7614 5.56256C13.6678 4.49815 15.0628 3.82422 16.5 3.82422C19.0277 3.82422 21 5.7965 21 8.32422C21 9.88575 20.3068 11.3807 18.882 13.1239C17.4459 14.8808 15.3734 16.7651 12.7786 19.1232C12.7782 19.1235 12.7778 19.1238 12.7775 19.1241L12.0026 19.8242L11.2232 19.1147Z" fill="white" stroke="#202020" stroke-width="2"/>
</svg>

<svg width="24" height="24" fill="none" xmlns="http://www.w3.org/2000/svg"><path d="M11.223 19.115l-.001-.002c-2.595-2.353-4.668-4.235-6.104-5.99C3.693 11.38 3 9.885 3 8.323c0-2.527 1.972-4.5 4.5-4.5 1.437 0 2.832.674 3.739 1.739l.761.894.761-.894c.907-1.065 2.302-1.739 3.739-1.739 2.528 0 4.5 1.973 4.5 4.5 0 1.562-.693 3.057-2.118 4.8-1.436 1.757-3.509 3.641-6.103 6h-.002l-.774.7-.78-.71z" fill="#fff" stroke="#202020" stroke-width="2"/></svg>
